img/Parceiros/flexblog.svg

<svg width="164" height="38" fill="none" xmlns="http://www.w3.org/2000/svg"><path d="M2.688 30.072c-.812 0-1.47-.252-1.974-.756C.238 28.812 0 28.154 0 27.342V2.772C0 1.96.224 1.33.672.882 1.148.434 1.792.21 2.604.21h14.742c1.708 0 2.562.728 2.562 2.184 0 1.428-.854 2.142-2.562 2.142H5.334V12.6h11.172c1.708 0 2.562.728 2.562 2.184 0 1.428-.854 2.142-2.562 2.142H5.334v10.416c0 .812-.238 1.47-.714 1.974s-1.12.756-1.932.756Zm24.925 0c-.756 0-1.386-.21-1.89-.63-.476-.448-.714-1.078-.714-1.89V2.478c0-.812.238-1.428.714-1.848.504-.42 1.134-.63 1.89-.63s1.386.21 1.89.63c.504.42.756 1.036.756 1.848v25.074c0 .812-.252 1.442-.756 1.89-.504.42-1.134.63-1.89.63Zm24.314-5.88c.476 0 .854.182 1.134.546.308.364.462.854.462 1.47 0 .868-.518 1.596-1.554 2.184-.952.532-2.03.966-3.234 1.302-1.204.308-2.352.462-3.444.462-3.304 0-5.922-.952-7.854-2.856-1.932-1.904-2.898-4.508-2.898-7.812 0-2.1.42-3.962 1.26-5.586.84-1.624 2.016-2.884 3.528-3.78 1.54-.896 3.276-1.344 5.208-1.344 1.848 0 3.458.406 4.83 1.218 1.372.812 2.436 1.96 3.192 3.444.756 1.484 1.134 3.234 1.134 5.25 0 1.204-.532 1.806-1.596 1.806h-12.39c.168 1.932.714 3.36 1.638 4.284.924.896 2.268 1.344 4.032 1.344.896 0 1.68-.112 2.352-.336.7-.224 1.484-.532 2.352-.924.84-.448 1.456-.672 1.848-.672ZM44.66 12.474c-1.428 0-2.576.448-3.444 1.344-.84.896-1.344 2.184-1.512 3.864h9.492c-.056-1.708-.476-2.996-1.26-3.864-.784-.896-1.876-1.344-3.276-1.344Zm30.723 13.482c.504.504.756 1.078.756 1.722 0 .616-.238 1.176-.714 1.68-.476.476-1.036.714-1.68.714-.7 0-1.302-.294-1.806-.882l-5.922-6.552-5.922 6.552c-.532.56-1.134.84-1.806.84-.616 0-1.162-.238-1.638-.714s-.714-1.022-.714-1.638c0-.644.252-1.218.756-1.722l6.132-6.678-5.796-6.3c-.504-.504-.756-1.078-.756-1.722 0-.644.238-1.19.714-1.638.476-.476 1.022-.714 1.638-.714.672 0 1.274.28 1.806.84l5.586 6.132 5.586-6.132c.532-.56 1.134-.84 1.806-.84.644 0 1.19.238 1.638.714.476.448.714.994.714 1.638 0 .644-.252 1.218-.756 1.722l-5.796 6.3 6.174 6.678Zm23.236-11.424c1.708.476 3.024 1.344 3.948 2.604.952 1.26 1.428 2.8 1.428 4.62 0 2.52-.91 4.494-2.73 5.922-1.792 1.428-4.27 2.142-7.434 2.142H82.995c-.812 0-1.456-.224-1.932-.672-.448-.448-.672-1.078-.672-1.89V2.772c0-.812.224-1.442.672-1.89.476-.448 1.12-.672 1.932-.672H93.41c3.08 0 5.488.686 7.224 2.058 1.764 1.344 2.646 3.234 2.646 5.67 0 1.568-.42 2.926-1.26 4.074-.812 1.148-1.946 1.988-3.402 2.52h.001Zm-12.936-1.848h6.846c3.724 0 5.586-1.386 5.586-4.158 0-1.4-.462-2.436-1.386-3.108-.924-.672-2.324-1.008-4.2-1.008h-6.846v8.274Zm7.56 12.936c1.96 0 3.388-.35 4.284-1.05.896-.7 1.344-1.792 1.344-3.276 0-1.484-.462-2.59-1.386-3.318-.896-.728-2.31-1.092-4.242-1.092h-7.56v8.736h7.56Zm17.96 4.452c-.756 0-1.386-.21-1.89-.63-.476-.448-.714-1.078-.714-1.89V2.478c0-.812.238-1.428.714-1.848.504-.42 1.134-.63 1.89-.63s1.386.21 1.89.63c.504.42.756 1.036.756 1.848v25.074c0 .812-.252 1.442-.756 1.89-.504.42-1.134.63-1.89.63Zm17.426.084c-2.1 0-3.948-.434-5.544-1.302-1.568-.868-2.786-2.114-3.654-3.738-.868-1.624-1.302-3.514-1.302-5.67s.434-4.032 1.302-5.628c.868-1.624 2.086-2.87 3.654-3.738 1.596-.868 3.444-1.302 5.544-1.302 2.1 0 3.934.434 5.502 1.302a8.717 8.717 0 0 1 3.654 3.738c.868 1.596 1.302 3.472 1.302 5.628s-.434 4.046-1.302 5.67a8.717 8.717 0 0 1-3.654 3.738c-1.568.868-3.402 1.302-5.502 1.302Zm-.042-4.074c1.708 0 3.01-.56 3.906-1.68.896-1.12 1.344-2.772 1.344-4.956 0-2.156-.448-3.794-1.344-4.914-.896-1.148-2.184-1.722-3.864-1.722-1.68 0-2.982.574-3.906 1.722-.896 1.12-1.344 2.758-1.344 4.914 0 2.184.448 3.836 1.344 4.956.896 1.12 2.184 1.68 3.864 1.68Zm32.222-17.22c.784 0 1.414.224 1.89.672.476.448.714 1.05.714 1.806v16.59c0 3.22-.896 5.656-2.688 7.308-1.792 1.652-4.438 2.478-7.938 2.478-3.052 0-5.6-.574-7.644-1.722-1.036-.616-1.554-1.358-1.554-2.226 0-.616.14-1.106.42-1.47.308-.364.7-.546 1.176-.546.252 0 .56.056.924.168.364.14.742.294 1.134.462 1.008.42 1.904.742 2.688.966.812.224 1.736.336 2.772.336 3.668 0 5.502-1.792 5.502-5.376V25.62c-.616 1.148-1.512 2.044-2.688 2.688-1.176.616-2.52.924-4.032.924-1.792 0-3.388-.42-4.788-1.26-1.372-.868-2.45-2.072-3.234-3.612-.784-1.54-1.176-3.318-1.176-5.334 0-2.016.378-3.794 1.134-5.334.784-1.568 1.876-2.772 3.276-3.612 1.4-.868 2.996-1.302 4.788-1.302 1.512 0 2.856.322 4.032.966a6.286 6.286 0 0 1 2.688 2.646v-1.092c0-.728.238-1.316.714-1.764.476-.448 1.106-.672 1.89-.672Zm-7.938 16.296c1.68 0 2.982-.546 3.906-1.638.952-1.092 1.428-2.59 1.428-4.494 0-1.932-.476-3.444-1.428-4.536-.924-1.092-2.226-1.638-3.906-1.638-1.652 0-2.954.546-3.906 1.638-.952 1.092-1.428 2.604-1.428 4.536 0 1.904.476 3.402 1.428 4.494.952 1.092 2.254 1.638 3.906 1.638Z" fill="#9C9C9C"/></svg>

<svg width="164" height="38" viewBox="0 0 164 38" fill="none" xmlns="http://www.w3.org/2000/svg">
<path d="M2.688 30.072C1.876 30.072 1.218 29.82 0.714 29.316C0.238 28.812 0 28.154 0 27.342V2.772C0 1.96 0.224 1.33 0.672 0.882C1.148 0.434 1.792 0.21 2.604 0.21H17.346C19.054 0.21 19.908 0.938 19.908 2.394C19.908 3.822 19.054 4.536 17.346 4.536H5.334V12.6H16.506C18.214 12.6 19.068 13.328 19.068 14.784C19.068 16.212 18.214 16.926 16.506 16.926H5.334V27.342C5.334 28.154 5.096 28.812 4.62 29.316C4.144 29.82 3.5 30.072 2.688 30.072ZM27.613 30.072C26.857 30.072 26.227 29.862 25.723 29.442C25.247 28.994 25.009 28.364 25.009 27.552V2.478C25.009 1.666 25.247 1.05 25.723 0.63C26.227 0.21 26.857 0 27.613 0C28.369 0 28.999 0.21 29.503 0.63C30.007 1.05 30.259 1.666 30.259 2.478V27.552C30.259 28.364 30.007 28.994 29.503 29.442C28.999 29.862 28.369 30.072 27.613 30.072ZM51.927 24.192C52.403 24.192 52.781 24.374 53.061 24.738C53.369 25.102 53.523 25.592 53.523 26.208C53.523 27.076 53.005 27.804 51.969 28.392C51.017 28.924 49.939 29.358 48.735 29.694C47.531 30.002 46.383 30.156 45.291 30.156C41.987 30.156 39.369 29.204 37.437 27.3C35.505 25.396 34.539 22.792 34.539 19.488C34.539 17.388 34.959 15.526 35.799 13.902C36.639 12.278 37.815 11.018 39.327 10.122C40.867 9.226 42.603 8.778 44.535 8.778C46.383 8.778 47.993 9.184 49.365 9.996C50.737 10.808 51.801 11.956 52.557 13.44C53.313 14.924 53.691 16.674 53.691 18.69C53.691 19.894 53.159 20.496 52.095 20.496H39.705C39.873 22.428 40.419 23.856 41.343 24.78C42.267 25.676 43.611 26.124 45.375 26.124C46.271 26.124 47.055 26.012 47.727 25.788C48.427 25.564 49.211 25.256 50.079 24.864C50.919 24.416 51.535 24.192 51.927 24.192ZM44.66 12.474C43.232 12.474 42.084 12.922 41.216 13.818C40.376 14.714 39.872 16.002 39.704 17.682H49.196C49.14 15.974 48.72 14.686 47.936 13.818C47.152 12.922 46.06 12.474 44.66 12.474ZM75.383 25.956C75.887 26.46 76.139 27.034 76.139 27.678C76.139 28.294 75.901 28.854 75.425 29.358C74.949 29.834 74.389 30.072 73.745 30.072C73.045 30.072 72.443 29.778 71.939 29.19L66.017 22.638L60.095 29.19C59.563 29.75 58.961 30.03 58.289 30.03C57.673 30.03 57.127 29.792 56.651 29.316C56.175 28.84 55.937 28.294 55.937 27.678C55.937 27.034 56.189 26.46 56.693 25.956L62.825 19.278L57.029 12.978C56.525 12.474 56.273 11.9 56.273 11.256C56.273 10.612 56.511 10.066 56.987 9.618C57.463 9.142 58.009 8.904 58.625 8.904C59.297 8.904 59.899 9.184 60.431 9.744L66.017 15.876L71.603 9.744C72.135 9.184 72.737 8.904 73.409 8.904C74.053 8.904 74.599 9.142 75.047 9.618C75.523 10.066 75.761 10.612 75.761 11.256C75.761 11.9 75.509 12.474 75.005 12.978L69.209 19.278L75.383 25.956ZM98.619 14.532C100.327 15.008 101.643 15.876 102.567 17.136C103.519 18.396 103.995 19.936 103.995 21.756C103.995 24.276 103.085 26.25 101.265 27.678C99.473 29.106 96.995 29.82 93.831 29.82H82.995C82.183 29.82 81.539 29.596 81.063 29.148C80.615 28.7 80.391 28.07 80.391 27.258V2.772C80.391 1.96 80.615 1.33 81.063 0.882C81.539 0.434 82.183 0.21 82.995 0.21H93.41C96.49 0.21 98.898 0.896 100.634 2.268C102.398 3.612 103.28 5.502 103.28 7.938C103.28 9.506 102.86 10.864 102.02 12.012C101.208 13.16 100.074 14 98.618 14.532H98.619ZM85.683 12.684H92.529C96.253 12.684 98.115 11.298 98.115 8.526C98.115 7.126 97.653 6.09 96.729 5.418C95.805 4.746 94.405 4.41 92.529 4.41H85.683V12.684ZM93.243 25.62C95.203 25.62 96.631 25.27 97.527 24.57C98.423 23.87 98.871 22.778 98.871 21.294C98.871 19.81 98.409 18.704 97.485 17.976C96.589 17.248 95.175 16.884 93.243 16.884H85.683V25.62H93.243ZM111.203 30.072C110.447 30.072 109.817 29.862 109.313 29.442C108.837 28.994 108.599 28.364 108.599 27.552V2.478C108.599 1.666 108.837 1.05 109.313 0.63C109.817 0.21 110.447 0 111.203 0C111.959 0 112.589 0.21 113.093 0.63C113.597 1.05 113.849 1.666 113.849 2.478V27.552C113.849 28.364 113.597 28.994 113.093 29.442C112.589 29.862 111.959 30.072 111.203 30.072ZM128.629 30.156C126.529 30.156 124.681 29.722 123.085 28.854C121.517 27.986 120.299 26.74 119.431 25.116C118.563 23.492 118.129 21.602 118.129 19.446C118.129 17.29 118.563 15.414 119.431 13.818C120.299 12.194 121.517 10.948 123.085 10.08C124.681 9.212 126.529 8.778 128.629 8.778C130.729 8.778 132.563 9.212 134.131 10.08C135.703 10.923 136.978 12.2277 137.785 13.818C138.653 15.414 139.087 17.29 139.087 19.446C139.087 21.602 138.653 23.492 137.785 25.116C136.978 26.7063 135.703 28.011 134.131 28.854C132.563 29.722 130.729 30.156 128.629 30.156ZM128.587 26.082C130.295 26.082 131.597 25.522 132.493 24.402C133.389 23.282 133.837 21.63 133.837 19.446C133.837 17.29 133.389 15.652 132.493 14.532C131.597 13.384 130.309 12.81 128.629 12.81C126.949 12.81 125.647 13.384 124.723 14.532C123.827 15.652 123.379 17.29 123.379 19.446C123.379 21.63 123.827 23.282 124.723 24.402C125.619 25.522 126.907 26.082 128.587 26.082ZM160.809 8.862C161.593 8.862 162.223 9.086 162.699 9.534C163.175 9.982 163.413 10.584 163.413 11.34V27.93C163.413 31.15 162.517 33.586 160.725 35.238C158.933 36.89 156.287 37.716 152.787 37.716C149.735 37.716 147.187 37.142 145.143 35.994C144.107 35.378 143.589 34.636 143.589 33.768C143.589 33.152 143.729 32.662 144.009 32.298C144.317 31.934 144.709 31.752 145.185 31.752C145.437 31.752 145.745 31.808 146.109 31.92C146.473 32.06 146.851 32.214 147.243 32.382C148.251 32.802 149.147 33.124 149.931 33.348C150.743 33.572 151.667 33.684 152.703 33.684C156.371 33.684 158.205 31.892 158.205 28.308V25.62C157.589 26.768 156.693 27.664 155.517 28.308C154.341 28.924 152.997 29.232 151.485 29.232C149.693 29.232 148.097 28.812 146.697 27.972C145.325 27.104 144.247 25.9 143.463 24.36C142.679 22.82 142.287 21.042 142.287 19.026C142.287 17.01 142.665 15.232 143.421 13.692C144.205 12.124 145.297 10.92 146.697 10.08C148.097 9.212 149.693 8.778 151.485 8.778C152.997 8.778 154.341 9.1 155.517 9.744C156.663 10.3302 157.601 11.2537 158.205 12.39V11.298C158.205 10.57 158.443 9.982 158.919 9.534C159.395 9.086 160.025 8.862 160.809 8.862ZM152.871 25.158C154.551 25.158 155.853 24.612 156.777 23.52C157.729 22.428 158.205 20.93 158.205 19.026C158.205 17.094 157.729 15.582 156.777 14.49C155.853 13.398 154.551 12.852 152.871 12.852C151.219 12.852 149.917 13.398 148.965 14.49C148.013 15.582 147.537 17.094 147.537 19.026C147.537 20.93 148.013 22.428 148.965 23.52C149.917 24.612 151.219 25.158 152.871 25.158Z" fill="#9C9C9C"/>
</svg>
